X: 14787
T: Gan Ainm
R: reel
M: 4/4
K: Dmajor
|:d2dc dAAB|cdcB AEAB|cAAB cdef|g2ed BGFG|
A2dc dAAB|cAcF AG (3Bcd|ef (3efg fedf|ggfd cGA[cG]:|
FBBc dffd|efed cAGA|d2(3fed g3b gfde cAAc|
dBBc dffd|efed cAGA|d2(3fed c3e|dB (3cBA dcB[cA]:|
BFdc BFdc|Acef gafb|bfgf ceec|(3def (3aec d3(f|f2)B4 (3cBA|
(3FAB ge dgec|BGFE (3GAB (3cde|f8||

